X:518
T:Reel 518
M:4/4
K:Gmaj
L:1/8
dc|B>G (3GGG BGGF|DG (3GFG G2Bc|d=fef dcBc|A>A (3AAA =f2dc|B>G (3GFG DGBc|dggf g2fg| (3efg dc BcAF|G>G (3GFG B2dB|d>G (3GGG GBdc|d>G (3GFG dedc|d>G (3GGG GABG|AGAG =fdc2|d>g (3gfg b>g (3gfg |dgfg edBd|cdef g2ge|=fdcd e2=fd||=fefg ecdc|=fdfg efge|d>g (3gfg agaf|gfge fdec|d>g (3gfg agfg|defg egfd|gfge fedc|AGAG AB
